!!!OTL: 126e. Lachen und Weinen.
!!!ARE: Europa, Mitteleuropa, Deutschland, Unter - Lahnkreis, Kreis Limburg
!!!SCT: E0126B
!!!TXL: @@DE
!!!YEM: Copyright 1995, estate of Helmut Schaffrath.
**kern	**text
*ICvox	*
*M6/8	*
*k[b-]	*
*F:	*
!LO:TX:a:t=Etwas bewegt.	!
!LO:TX:a:t=Unterlahnkreis und Kreis Limburg.	!
{8f	Es
=1	=1
4cc	wollt
8cc	ein
4cc	Mädchen
8dd	die
=2	=2
4cc	Lämm-
8cc	-lein
4a}	hüten
{8cc	am
=3	=3
(4.b-	Rai-
4cc)	.
8b-	.
=4	=4
4.a	-ne,
4r}	.
{8f	Da
=5	=5
4cc	kommt
8cc	ein
4cc	Ritter
8dd	ʒu
=6	=6
4cc	ihr
8cc	ge-
4a}	-ritten
{8cc	ganʒ
=7	=7
(4.b-	fei-
4cc)	.
8b-	.
=8	=8
4.a	-ne!
4r}	.
{8f	Schöns
=9	=9
8dd	Mä-
8dd	-del,
8dd	ſchöns
8ff	Mä-
8ee	-del,
8dd	was
=10	=10
8ddL	macheſt
8ccJ	.
8cc	du
4cc}	hier?
{8cc	du
=11	=11
8b-	hü-
8b-	-teſt
8b-	die
8dd	Läm-
8cc	-mer
8b-	und
=12	=12
8b-L	trän-
8aJ	-keſt
8a	das
4a}	Vieh.
{8cc	Da
=13	=13
8cc	lach-
8cc	-te
8cc	das
8b-	Mäd-
8b-	-chen
8cc	ſo
=14	=14
[4.a	ſehr.
8a]	.
8r}	.
==	==
!!!AGN: erzaehlendes Volks - Lied, Schalk -, Schelmen - Lied, betrogene Liebe, Ballade ?
!!!ONB: ESAC (Essen Associative Code) Database: ERK1
!!!AMT: compound duple
!!!AIN: vox
!!!EED: Helmut Schaffrath
!!!EEV: 1.0
!!!GTL: Schalks- und Schlemenlieder (Liebesabenteuer und betrogene Liebe)
!!!URL-scan: https://rosdok.uni-rostock.de/mcrviewer/recordIdentifier/rosdok_ppn745146120/iview2/phys_0507.iview2?x=42.493199353519685&y=1337.962211563019&scale=0.6830750172916054&rotation=0&layout=singlePageLayout
!!!ENC: Anna Maria Matuszewska
!!!EEV: 2024/03/12
*-	*-
